X: 58
T:Grand Old Duke of York
% Nottingham Music Database
P:AABA
S:Trad, via EF
M:4/4
L:1/4
K:D
P:A
f/2e/2| !segno!"D"dA FA|"D"d3/2d/2 dd|"A7"ce ee|"A7"e3/2A/2 B/2c/2d/2e/2|
"D"f3/2f/2 fa|"G"gf "E7"ed|"A7"cA d/2c/2B/2c/2|"D"d2 -d:|
P:B
d/2c/2|"Bm"BB cd|"F#7"e3/2e/2 dc|"Bm"BB cd|"F#7"ef/2e/2 dc|
"Bm"BB cd|"F#7"ef/2e/2 "Bm"de/2d/2|"E7"cd/2c/2 Bc/2B/2|"A7"AA B\
P:D.S.
c||<end>
<start>
